X: 10671
T: CHARLEY OVER THE WATER
C:
%R: jig
B: Elias Howe "The Musician's Companion" Part 1 1842 p.67 #1
S: http://imslp.org/wiki/The_Musician's_Companion_(Howe,_Elias)
Z: 2015 John Chambers <jc:trillian.mit.edu>
M: 6/8
L: 1/8
K: D
% - - - - - - - - - - - - - - - - - - - - - - - - -
[|\
DFA AFA | BdB AFD | DFA AFA | B2c d2z |\
DFA AFA | BdB AFD | dfd ecA | B2c d2z |]
[|\
dfd ecA | BdB AFD | faf ecA | B2c d2z |\
faf ecA | BdB AFD | DFA AFA | B2c d2z |]
% - - - - - - - - - - - - - - - - - - - - - - - - -


